X:961
T:Auld Scots Mother o' Mine
C:Joe Buchanan's Scottish Tome - Page 560.1
I:560 1
Z:Carl Allison
R:Waltz
L:1/4
M:3/4
K:C
"C"E2 D | "G7"F E2 | "C"C3- | "C7"C E G | "C"c2 B | "Dm"d2 c | "D7"D3- | D2 c |
"G7"B3 | "D7"A3 | "F"F3- | F E D | "G"C3 | "D7"A3 | "G"G3- | "G7"G3 |
"C"E2 D | "G7"F E2 | "C"C3- | "C7"C E G | "C"c2 B | "Dm"d2 c | "D7"D3- | D3 |
"Dm"A3 | "G"B2 c | "C"e3 | G3 | "F"A2 c | "G7"c2 B | "C"c3 | "C"c3 :|

